X: 014
T: A Caup o' ye'r tippany Kate, a Jig
C: attr. John French (1753-1803)
R: slip-jig
B: "John French Collection", John French ed. p.1 #4
S: http://www.heallan.com/french.asp
Z: 2012 John Chambers <jc:trillian.mit.edu>
M: 9/8
L: 1/8
K: Dm
   c | d2D FED CDE | d2D FGA def | edc GEG CDE | d2D TED^C D2 :|
|: c | dAd fed cde | dAd fed afd | ced cBc CDE | d2D TED^C D2 :|

%%sep 2 1 500
%%sep 1 1 500

